!!!COM:	Bach, Johann Sebastian
!!!CDT:	1685/02/21/-1750/07/28/
!!!OTL@@DE:	Wo soll ich fliehen hin
!!!SCT:	BWV 89/6
!!!PC#:	281
!!!AGN:	chorale
**kern	**kern	**kern	**kern
*ICvox	*ICvox	*ICvox	*ICvox
*Ibass	*Itenor	*Ialto	*Isoprn
*I"Bass	*I"Tenor	*I"Alto	*I"Soprano
*	*oclefC4	*oclefC3	*oclefC1
*clefF4	*clefGv2	*clefG2	*clefG2
*k[b-e-]	*k[b-e-]	*k[b-e-]	*k[b-e-]
*g:	*g:	*g:	*g:
*M4/4	*M4/4	*M4/4	*M4/4
*met(c)	*met(c)	*met(c)	*met(c)
*MM100	*MM100	*MM100	*MM100
4GG	4B-	4d	4g
=1	=1	=1	=1
4G	4B-	4d	4g
4F#	4A	4d	4a
4G	8GL	4d	4b-
.	8B-J	.	.
4E-	4e-	4g	4cc
=2	=2	=2	=2
2.D;	2.A;	2.f#;	2.dd;
4C	4A	4f#	4dd
=3	=3	=3	=3
4BB-	4B-	4g	4dd
4AA	4c	8gL	4cc
.	.	8f#J	.
4GG	4d	4g	4b-
4C	4e-	4a	4cc
=4	=4	=4	=4
2.D;	2.d;	2.f#;	2.a;
4D	4d	4f#	4a
=5	=5	=5	=5
4G	4d	4g	4b-
4F	4fnX	4a	4cc
8B-L	4f	4b-	4dd
8A	.	.	.
8G	4g	4b-	4dd
8FJ	.	.	.
=6	=6	=6	=6
4E-	4g	4b-	2cc
4F	4f	4a	.
4BB-;	4f;	4b-;	4dd;
4FF#	4d	4a	4dd
=7	=7	=7	=7
8GGL	4d	4g	4b-
8G	.	.	.
8FnX	4f	8aL	4cc
8E-J	.	8gJ	.
8DL	4B-	4f	4dd
8C	.	.	.
8BB-	4B-	4f	4dd
8DJ	.	.	.
=8	=8	=8	=8
8E-L	4B-	4g	2cc
8CJ	.	.	.
4F	4A	4f	.
4BB-;	4d;	4f;	4b-;
4B-	4f	4b-	4dd
=9	=9	=9	=9
4A	4f	4cc	4ff
4B-	8fL	4b-	4dd
.	8gJ	.	.
4F#	8aL	4a	4dd
.	8AJ	.	.
4G	4B-	4g	4dd
=10	=10	=10	=10
4E	4B-	4g	2cc
4C	8AL	8fnXL	.
.	8GJ	8eJ	.
4F;	4A;	4f;	4cc;
4E-	4G	4g	4cc
=11	=11	=11	=11
8DL	4A	4f#	4dd
8CJ	.	.	.
8BB-L	4d	4f#	4cc
8AAJ	.	.	.
8GGL	4d	4g	4b-
8FnXJ	.	.	.
8E-L	8cL	4g	8ccL
8DJ	8dJ	.	8b-J
=12	=12	=12	=12
4C	4e-	4g	2a
4D	8dL	4f#	.
.	8cJ	.	.
4GG;	4B;	4d;	4g;
==	==	==	==
*-	*-	*-	*-
!!!YOR1: 371 vierstimmige Choralges&auml;nge von Johann Sebastian Bach, 
!!!YOR2: 4th ed. by Alfred D&ouml;rffel (Leipzig: Breitkopf und H&auml;rtel, 
!!!YOR2: c.1875). 178 pp. Plate "V.A.10".  reprint: J.S. Bach, 371 Four-Part 
!!!YOR4: Chorales (New York: Associated Music Publishers, Inc., c.1940).
!!!SMS: B&H, 4th ed, Alfred D&ouml;rffel, c.1875, plate V.A.10
!!!EED:  Craig Stuart Sapp
!!!EEV:  2009/05/22
